X:0191
T:Tristram Shandy.
M:6/8
L:1/8
Q:3/8=120
I: :: ::
Z:Jack Campin * www.campin.me.uk * 2009
K:D
Add dcd|efe efg|fed dcd|ecA d3:|
dfa afd|Bgf gec|ddd dcd|ecA d3:|
<end>
<start>
